X: 127
T: Contradine Venetian
B: 204 Favourite Country Dances
N: Published by Straight & Skillern, London ca.1775
F: http://imslp.org/wiki/204_Favourite_Country_Dances_(Various) p.64 #127
Z: 2014 John Chambers <jc:trillian.mit.edu>
M: 2/4
L: 1/8
K: C
% - - - - - - - - - - - - - - - - - - - - - - - - -
|:\
c2 {e}dc | {c}B2 AG | AGAB | ce gz |\
cedc | {c}B2 AG | AGAB | c2 C2 :|
|:\
e2 Fe | (f/g/a/g/) fe | dedc | B2 d2 |\
e2 Ee | f/g/a/g/ fe | dcGB | c2 C2 :|
% - - - - - - - - - - - - - - - - - - - - - - - - -
%%begintext align
%% Cast off 1 Cu. cast up again cross over
%% 1 Cu. Right and Left at top
%%endtext

%%sep 1 1 500
%%sep 1 1 500
